X: 373
T:McFadden's Reel
R:reel
D:Paddy Glackin: Ceol ar an bhFidil le Paddy Glackin.
Z:id:hn-reel-176
M:C|
K:Edor
EBed ~B3c|dB~B2 dBAF|EBed ~B3e|fded dBAF|
EB~B2 dB~B2|EB~B2 BAFB|A2FB ABde|fded dBAg||
fa~a2 fdde|fdad BdAg|fa~a2 bfaf|egfe dBAg|
fa~a2 fdde|fdad BdAg|faaf ~a3f|egfe dBAF||
<end>
<start>
